X: 13418
T: Floating Carpet, The
R: jig
M: 6/8
K: Gmajor
ged egd|edB ABG|~E3 DEG|ABG ABd|
ged egd|edB ABG|~E3 DGA|AGF GBd:|
~e3 d2 c|B3 AGE|~G3Bcd|ged egd|
~e3 d2 c|B3 AGE|GBd egd|edB GBd:|

